X:493
T: Siji ge
N: C1152
O: China,Qinghai
S: Zhongguo Minge Xuan, S. 232]
N: +++ unm?gliche musikal. Struktur!!! Widerspruch zwischen
N: musikalischem und Textsatz.
R: Xiaodiao]
M: 4/4
L: 1/16
K: D
F3BFBFEFEDCB,4 | B3dBAFAB8 | B3dBAFAB8 |
B2B2e2BAB2B2A2F2 | B3dBAF2E2F2(3A2F2A2 | E2FAFEC2B,8 |
B2BdBAF2E8 | B3dBAF2E2F2A4 | E2FAFEC2B,8

